X:139
T:Bridge of Perth
B:The Athole Collection, 1884
Z:Nigel Gatherer
M:4/4
L:1/8
K:A
A/B/c/d/ ed cAec|cAeg ae c2|A/B/c/d/ ed ceA=c|B=GGB gd B2:|
Aaga eaca|eacf eA c2|Aaga eaca|B=gdg dG B2:|
<end>
<start>
